docs/img/like-news.svg

<svg width="20" height="19" viewBox="0 0 20 19" fill="none" xmlns="http://www.w3.org/2000/svg">
<path fill-rule="evenodd" clip-rule="evenodd" d="M19.7917 8.70844C19.7917 9.41772 19.5648 10.032 19.1113 10.5515C19.2353 10.9145 19.297 11.2278 19.2959 11.4919C19.3208 12.1187 19.1435 12.6835 18.7642 13.1866C18.9042 13.6483 18.9042 14.1308 18.7642 14.6335C18.6407 15.1037 18.4179 15.4911 18.0963 15.7962C18.1703 16.7198 17.9683 17.4661 17.4902 18.0352C16.9622 18.6618 16.1503 18.9835 15.0533 19H14.6081L13.6679 19H13.4576C12.9134 19 12.3198 18.9359 11.6765 18.8082C11.0337 18.6802 10.5324 18.5605 10.1738 18.4493C9.81503 18.3382 9.31826 18.175 8.68337 17.961C7.66899 17.606 7.01751 17.4248 6.72892 17.4165C6.5145 17.4083 6.32894 17.3279 6.17232 17.1752C6.01561 17.0226 5.93732 16.8392 5.93732 16.6248L5.93732 8.69584C5.93732 8.48974 6.01153 8.31033 6.16001 8.15778C6.30849 8.00514 6.48582 7.92061 6.69183 7.90415C6.8897 7.88764 7.20303 7.64442 7.6319 7.17425C8.06069 6.70417 8.47709 6.20528 8.88128 5.67757C9.44217 4.96019 9.85857 4.46537 10.1307 4.19329C10.2791 4.04477 10.4068 3.84699 10.5141 3.59947C10.6212 3.35213 10.6936 3.15218 10.7306 2.99963C10.768 2.84708 10.8234 2.59779 10.8979 2.25127C10.9553 1.92976 11.007 1.67816 11.0523 1.49676C11.0977 1.31527 11.1782 1.10085 11.2937 0.853423C11.409 0.606122 11.5494 0.39998 11.7143 0.235084C11.8712 0.0783756 12.0566 0 12.2709 0C12.6505 0 12.9905 0.0432821 13.2918 0.129889C13.5927 0.21641 13.84 0.323597 14.034 0.451407C14.2279 0.579304 14.3928 0.746063 14.5289 0.952465C14.6647 1.15848 14.7638 1.34417 14.8257 1.50907C14.8874 1.67392 14.937 1.8801 14.9743 2.12741C15.0111 2.37484 15.0321 2.56044 15.036 2.68414C15.0399 2.80774 15.0423 2.9687 15.0423 3.16652C15.0423 3.47989 15.0033 3.7934 14.9248 4.1066C14.8462 4.41997 14.7683 4.66727 14.69 4.84889C14.6116 5.03016 14.498 5.26122 14.3496 5.54145C14.3249 5.59084 14.2836 5.6651 14.226 5.76409C14.1685 5.86305 14.1227 5.95386 14.0901 6.03631C14.0571 6.11876 14.0241 6.21771 13.9912 6.33313H17.4175C18.0607 6.33313 18.6172 6.56813 19.0873 7.03838C19.5563 7.50868 19.7917 8.06524 19.7917 8.70844ZM0.791813 7.91793L4.3542 7.91793C4.56861 7.91793 4.75409 7.99626 4.9108 8.15301C5.06742 8.30968 5.14579 8.4952 5.14579 8.70961L5.14579 16.6265C5.14579 16.8407 5.06746 17.0263 4.9108 17.1831C4.75404 17.3396 4.56857 17.418 4.3542 17.418H0.791857C0.57744 17.418 0.391877 17.3396 0.235083 17.1831C0.0783753 17.0263 0 16.8406 0 16.6265L0 8.70961C0 8.4952 0.0783753 8.30964 0.23504 8.15301C0.391704 7.99631 0.577266 7.91793 0.791813 7.91793ZM2.37501 15.8345C2.58942 15.8345 2.77494 15.7583 2.93161 15.6057C3.08849 15.4532 3.16669 15.2656 3.16669 15.043C3.16669 14.8285 3.08832 14.6429 2.93161 14.4864C2.77494 14.3296 2.58942 14.2512 2.37501 14.2512C2.15232 14.2512 1.96472 14.3296 1.81221 14.4864C1.65962 14.643 1.58341 14.8286 1.58341 15.043C1.58341 15.2656 1.65966 15.4532 1.81221 15.6057C1.96467 15.7583 2.15232 15.8345 2.37501 15.8345Z" fill="#746859"/>
</svg>

<svg width="20" height="19" viewBox="0 0 20 19" fill="none" xmlns="http://www.w3.org/2000/svg"><path fill-rule="evenodd" clip-rule="evenodd" d="M19.792 8.708c0 .71-.227 1.324-.68 1.844.123.363.185.676.184.94a2.567 2.567 0 01-.532 1.695c.14.461.14.944 0 1.447-.123.47-.346.857-.668 1.162.074.924-.128 1.67-.606 2.24-.528.626-1.34.947-2.437.964h-1.595a9.195 9.195 0 01-1.781-.192 15.728 15.728 0 01-1.503-.359 68.005 68.005 0 01-1.49-.488c-1.015-.355-1.666-.536-1.955-.544a.818.818 0 01-.557-.242.74.74 0 01-.235-.55v-7.93c0-.205.075-.385.223-.537a.811.811 0 01.532-.254c.198-.016.511-.26.94-.73.429-.47.845-.969 1.25-1.496.56-.718.977-1.213 1.249-1.485.148-.148.276-.346.383-.594.107-.247.18-.447.217-.6.037-.152.092-.401.167-.748.057-.321.109-.573.154-.754.046-.182.126-.396.242-.644.115-.247.255-.453.42-.618A.761.761 0 0112.271 0c.38 0 .72.043 1.02.13.302.086.549.194.743.321.194.128.359.295.495.501.136.206.235.392.297.557.061.165.111.371.148.618.037.248.058.433.062.557.004.124.006.285.006.483 0 .313-.039.626-.117.94-.079.313-.157.56-.235.742a10.219 10.219 0 01-.464.915c-.058.1-.103.19-.136.272a3.087 3.087 0 00-.099.297h3.427c.643 0 1.2.235 1.67.705.468.47.704 1.027.704 1.67zm-19-.79h3.562c.215 0 .4.078.557.235a.76.76 0 01.235.557v7.916c0 .215-.079.4-.235.557a.761.761 0 01-.557.235H.792a.762.762 0 01-.557-.235.761.761 0 01-.235-.556V8.71c0-.215.078-.4.235-.557a.76.76 0 01.557-.235zm1.583 7.917a.77.77 0 00.557-.23.754.754 0 00.235-.562.76.76 0 00-.235-.557.76.76 0 00-.557-.235.754.754 0 00-.563.235.77.77 0 00-.229.557c0 .223.077.41.23.563.152.152.34.229.562.229z" fill="#746859"/></svg>
